javascript.info/2-ui/3-event-details/4-mouse-drag-and-drop/ball_shift.svg

<?xml version="1.0" encoding="UTF-8"?>
<svg width="149px" height="133px" viewBox="0 0 149 133" version="1.1" xmlns="http://www.w3.org/2000/svg" xmlns:xlink="http://www.w3.org/1999/xlink">
    <!-- Generator: sketchtool 55.2 (78181) - https://sketchapp.com -->
    <title>ball_shift.svg</title>
    <desc>Created with sketchtool.</desc>
    <defs>
        <path d="M93,75 L93,96.4285714 L98.25,91.0714286 L102.625,100 L104.375,100 C104.375,100 105.504905,98.8385438 105.25,98.2142857 C104.046572,95.2671152 100.875,89.2857143 100.875,89.2857143 L107,89.2857143 L93,75 Z" id="path-1"></path>
        <filter x="-42.9%" y="-25.8%" width="195.6%" height="153.8%" filterUnits="objectBoundingBox" id="filter-2">
            <feMorphology radius="1" operator="dilate" in="SourceAlpha" result="shadowSpreadOuter1"></feMorphology>
            <feOffset dx="0" dy="1" in="shadowSpreadOuter1" result="shadowOffsetOuter1"></feOffset>
            <feGaussianBlur stdDeviation="1.5" in="shadowOffsetOuter1" result="shadowBlurOuter1"></feGaussianBlur>
            <feComposite in="shadowBlurOuter1" in2="SourceAlpha" operator="out" result="shadowBlurOuter1"></feComposite>
            <feColorMatrix values="0 0 0 0 0   0 0 0 0 0   0 0 0 0 0  0 0 0 1 0" type="matrix" in="shadowBlurOuter1"></feColorMatrix>
        </filter>
        <rect id="path-3" x="13" y="5" width="111" height="111"></rect>
        <mask id="mask-4" maskContentUnits="userSpaceOnUse" maskUnits="objectBoundingBox" x="0" y="0" width="111" height="111" fill="white">
            <use xlink:href="#path-3"></use>
        </mask>
    </defs>
    <g id="dom" stroke="none" stroke-width="1" fill="none" fill-rule="evenodd">
        <g id="ball_shift.svg">
            <g id="ball" opacity="0.6" transform="translate(14.000000, 6.000000)">
                <circle id="Oval-4" fill="#FFFFFF" cx="53" cy="53" r="53"></circle>
                <path d="M108.94951,52.524319 C108.977964,52.4132528 108.977964,52.2907953 108.940973,52.1683377 L108.931014,52.1241961 C108.219647,37.8123267 102.074862,24.5570096 91.6234638,14.7860367 C90.3430039,13.4560909 88.4336958,11.8840777 86.2526458,10.3604781 C72.1192135,0.136697131 53.778759,-2.72966374 37.1868436,2.69691414 C35.9988613,3.00448193 34.3627181,3.62673712 32.459101,4.49248347 C29.3945335,5.82385327 26.4508984,7.43858414 23.7178278,9.29538223 C23.2113347,9.63142852 22.7375646,9.96462695 22.3107446,10.2821622 C22.3022082,10.286434 22.2922491,10.2935536 22.2808672,10.3035211 C19.0782946,12.6330623 16.1218549,15.3242804 13.4954893,18.3031313 C-6.32176239,40.7926015 -4.0468119,75.3256288 18.5618424,95.2819365 C22.7816693,99.0040763 27.5094119,102.03846 32.6198698,104.306773 C33.3525775,104.657058 33.9615073,104.866375 34.4793822,105.091355 C55.8616405,113.643448 80.3724892,107.860889 95.5075256,90.6883547 C104.779478,80.1598539 109.549903,66.6169039 108.94951,52.524319 Z M106.998942,50.2602783 C106.950569,50.1307012 106.903619,49.9982762 106.852401,49.868699 C105.739823,46.8684892 103.696778,41.3393887 98.7029846,36.9081343 C97.9660087,27.5956653 94.6510402,22.1505764 91.697446,17.3647648 C100.541156,26.217306 105.926201,37.7980874 106.998942,50.2602783 Z M70.5869298,9.11169592 C70.6310345,9.10172845 70.676562,9.0874892 70.7149758,9.07467387 C75.5167005,9.91478958 82.9533273,12.6430297 89.3485133,17.0030878 C89.3670089,17.0700123 89.3968863,17.1369368 89.4338773,17.1981656 C89.611719,17.4857984 90.054189,18.1991848 90.054189,18.1991848 C92.9053465,22.8183972 96.1335283,28.0498974 96.8619677,36.9380368 C93.9610146,39.076772 91.8937832,41.3564758 89.8877292,43.5607116 C88.6926333,44.8749943 87.4633918,46.227723 86.0619995,47.5505492 C81.3641342,43.1748279 73.0326082,39.4327532 64.0352431,37.6827495 C63.1531484,33.7868909 61.3861137,26.5618958 57.0496227,18.5594378 C57.1634414,18.4284367 57.2715691,18.3017074 57.3853878,18.176402 C64.3539353,10.2622273 66.8081502,9.81226698 69.6507713,9.29253438 C69.9523907,9.23700131 70.265392,9.17862039 70.5869298,9.11169592 Z M45.4230465,53.8841673 L63.4561906,39.4526882 C72.500506,41.1756373 80.8263411,44.9447666 85.2140505,49.3005529 C86.2867913,52.6268416 86.5628016,59.7934557 86.7705207,65.0662497 C86.870112,67.7660113 86.9682806,70.1268789 87.1347404,71.5479559 C80.0523742,78.0111512 70.6537982,84.6437934 67.5892308,85.334397 L47.8616113,77.6081804 C46.3862369,69.3380245 45.953726,63.6736511 45.4230465,53.8841673 Z M46.0134808,77.7548447 L31.7306615,87.8091786 C31.5969246,87.7536455 31.4475376,87.7422541 31.3038416,87.7735804 C28.6404849,88.3274872 18.3911144,80.8063158 13.3973207,76.439138 C13.3404113,76.3921485 13.2778111,76.3508547 13.2137881,76.3238001 C13.0018008,74.8941795 12.5479489,73.0772513 12.0357649,71.0139841 C10.6841683,65.5745909 9.00961128,58.8337303 10.5134403,54.6445432 C10.5433177,54.6203365 10.5675042,54.5932819 10.5959589,54.5648034 C10.6130317,54.5434445 10.6315272,54.5206617 10.6471773,54.496455 C11.6231723,53.0910411 12.5650217,51.8750092 13.5310576,50.7842827 C16.5785523,47.3212973 20.0329486,44.860755 25.4051894,42.3404079 C25.7580273,42.5967144 26.122247,42.8587166 26.4992713,43.134958 C31.5001787,46.7887494 38.3036892,51.7625191 43.5877206,54.097756 C44.1212455,63.8359786 44.5523337,69.5046237 46.0134808,77.7548447 Z M26.9559687,10.6125128 C27.1579968,10.3846848 27.375675,10.1867592 27.6289215,9.96035517 L27.7697721,9.83362586 C28.3032971,9.54029732 28.9947455,9.13305479 29.7943216,8.66600742 C31.6765977,7.56388953 34.2531676,6.05452911 37.0801386,4.63060419 C44.7102571,2.02339765 52.9592646,1.1975212 60.9920166,2.23129069 C60.9920166,2.49898858 61.1414036,2.75244721 61.3861137,2.87490476 C61.8783794,3.12978732 62.3749134,3.36900671 62.8714473,3.60965002 C64.9842062,4.63060419 66.9987965,5.60599276 68.8455042,7.56388953 C65.9602012,8.1106767 63.0080297,8.99351015 55.9783046,16.9746093 C55.8303403,17.1440564 55.6795306,17.3135035 55.5287209,17.4843745 C48.4449319,16.7795316 40.3012067,16.3908001 32.9769759,18.555166 C30.2680917,15.3242804 27.9917185,13.7878654 25.9757055,12.4280171 L25.9216416,12.3895711 C26.3626889,11.3600734 26.6884948,10.9158088 26.9559687,10.6125128 Z M4.07557231,44.5218609 C4.00870385,44.2897611 3.82943946,44.1074987 3.6003794,44.0348786 C3.36847388,43.9622584 3.11665009,44.0120958 2.9288493,44.1644557 C2.85486717,44.2256845 2.78088504,44.2897611 2.71117111,44.3566856 C4.40706916,35.320458 8.44051797,26.9249967 14.4714843,19.9306775 C14.8200539,19.6444686 15.2611013,19.2585849 15.7647488,18.820016 C17.8504758,17.0030878 22.7119554,12.7583676 24.255621,13.4931129 C24.255621,13.4931129 24.4363081,13.6155705 24.4434217,13.6198422 C24.4661855,13.6397772 24.4917947,13.6554403 24.5216721,13.6725274 L24.9470693,13.9601603 C26.8265,15.2331492 28.9534862,16.6670416 31.456074,19.6145661 C29.20531,24.3989539 24.4903719,36.2146829 24.5131357,40.7214053 C18.958785,43.3385793 15.3535789,45.9187312 12.1524291,49.5540116 C11.3016346,50.5194327 10.4679129,51.5717132 9.62138658,52.752147 C9.52179526,52.6595918 9.41793573,52.5599171 9.3140762,52.4645141 C7.70923307,50.9651212 5.28916379,48.6968088 4.07557231,44.5218609 Z M19.7540929,93.9292079 C15.1401689,89.8582065 11.3115937,85.0852102 8.36653584,79.7312525 C10.3583624,79.17165 11.3158619,78.8000056 12.4341303,78.0410536 C14.2723016,79.5974035 25.6555905,89.0835914 30.693489,89.6004761 C33.2686362,93.8523159 36.2264987,98.0158724 39.5002079,101.992895 C37.8526828,103.008153 36.496818,103.358439 34.7497015,103.254492 C29.2707557,101.013234 24.2228981,97.8777517 19.7540929,93.9292079 Z M38.4032806,104.598677 C39.2526523,104.286838 40.1134059,103.825486 41.0581008,103.186144 C48.9997979,104.359458 57.8577352,103.624713 64.0907297,102.747575 C64.1803619,102.80738 64.2813759,102.844402 64.3937719,102.860065 C65.8890645,103.057991 70.3365287,103.51507 75.6931195,102.904207 C63.9328063,107.987619 50.6999642,108.609874 38.4032806,104.598677 Z M92.5382813,90.8421386 C92.4315763,91.0001943 92.3931625,91.1838806 92.4187717,91.3647191 C89.1308351,94.7550843 85.4189241,97.6670108 81.3755161,100.030726 C81.2730793,100.007943 81.1649516,100.010791 81.0554011,100.03927 C74.5876557,101.74086 68.3930751,101.421901 65.6215907,101.141388 C66.8693277,98.0329595 67.7258132,93.4094753 68.2223471,87.0730094 C71.8588533,86.056327 81.0682057,79.587436 88.4294276,72.8622386 C90.2633308,73.1655346 91.5139134,73.4517436 92.5283222,73.6881151 C94.9996099,74.259109 96.1321055,74.5225351 100.62652,73.935878 C100.047467,77.312004 98.4212834,82.2914695 92.5382813,90.8421386 Z M100.602333,80.3891058 C101.865721,77.368961 102.346604,75.1163118 102.591315,73.3250142 C102.608387,73.1997088 102.597006,73.0772513 102.550055,72.9647612 C103.675437,70.408816 105.968883,63.1767013 107.146906,57.2588693 C106.785532,65.4464376 104.541882,73.3335578 100.602333,80.3891058 Z" id="Shape" fill="#000000" fill-rule="nonzero"></path>
            </g>
            <text id="shiftX" font-family="PTMono-Bold, PT Mono" font-size="14" font-weight="bold" fill="#EE6B47">
                <tspan x="27.8" y="87">shiftX</tspan>
            </text>
            <text id="shiftY" font-family="PTMono-Bold, PT Mono" font-size="14" font-weight="bold" fill="#EE6B47">
                <tspan x="94.8" y="34">shiftY</tspan>
            </text>
            <g id="Default">
                <use fill="black" fill-opacity="1" filter="url(#filter-2)" xlink:href="#path-1"></use>
                <path stroke="#D60000" stroke-width="1" d="M101.702548,89.7857143 C101.81929,90.0091013 101.943461,90.2476637 102.07373,90.4990682 C102.641101,91.594029 103.208503,92.708997 103.738324,93.7780566 C103.831097,93.965251 103.92204,94.1496892 104.011026,94.3311488 C104.753634,95.8454752 105.336697,97.1039657 105.712896,98.0252697 C105.851213,98.3640048 105.792574,98.7308177 105.609217,99.1249199 C105.514958,99.327516 105.387996,99.5343558 105.236136,99.7439784 C105.048724,100.002675 104.86285,100.215574 104.733388,100.348652 L104.586151,100.5 L102.313201,100.5 L98.1121579,91.9264424 L92.5,97.6531341 L92.5,73.7754373 L108.190071,89.7857143 L101.702547,89.7857143 Z" fill="#FFFFFF" fill-rule="evenodd"></path>
            </g>
            <use id="Rectangle" stroke="#999999" mask="url(#mask-4)" stroke-width="2" stroke-dasharray="1,1" xlink:href="#path-3"></use>
            <path id="Line-41-Copy-2" d="M28,72 L78.2949982,72 L78.2949982,66 L92.2949982,73 L78.2949982,80 L78.2949982,74 L28,74 L28,80 L14,73 L28,66 L28,72 Z" fill="#EE6B47" fill-rule="nonzero"></path>
            <path id="Line-41-Copy-3" d="M93.2949982,19 L93.2949982,59 L99.2949982,59 L92.2949982,73 L85.2949982,59 L91.2949982,59 L91.2949982,19 L85.2949982,19 L92.2949982,5 L99.2949982,19 L93.2949982,19 Z" fill="#EE6B47" fill-rule="nonzero"></path>
        </g>
    </g>
</svg>

<svg xmlns="http://www.w3.org/2000/svg" xmlns:xlink="http://www.w3.org/1999/xlink" width="149" height="133" viewBox="0 0 149 133"><defs><style>@import url(https://fonts.googleapis.com/css?family=Open+Sans:bold,italic,bolditalic%7CPT+Mono);@font-face{font-family:&apos;PT Mono&apos;;font-weight:700;font-style:normal;src:local(&apos;PT MonoBold&apos;),url(/pack/modules/styles/blocks/font/PTMonoBold.woff2) format(&apos;woff2&apos;),url(/pack/modules/styles/blocks/font/PTMonoBold.woff) format(&apos;woff&apos;),url(/pack/modules/styles/blocks/font/PTMonoBold.ttf) format(&apos;truetype&apos;)}</style></defs><defs><path id="path-1" d="M93 75v21.429l5.25-5.358 4.375 8.929h1.75s1.13-1.161.875-1.786c-1.203-2.947-4.375-8.928-4.375-8.928H107L93 75z"/><path id="path-3" d="M13 5h111v111H13z"/><filter id="filter-2" width="195.6%" height="153.8%" x="-42.9%" y="-25.8%" filterUnits="objectBoundingBox"><feMorphology in="SourceAlpha" operator="dilate" radius="1" result="shadowSpreadOuter1"/><feOffset dy="1" in="shadowSpreadOuter1" result="shadowOffsetOuter1"/><feGaussianBlur in="shadowOffsetOuter1" result="shadowBlurOuter1" stdDeviation="1.5"/><feComposite in="shadowBlurOuter1" in2="SourceAlpha" operator="out" result="shadowBlurOuter1"/><feColorMatrix in="shadowBlurOuter1" values="0 0 0 0 0 0 0 0 0 0 0 0 0 0 0 0 0 0 1 0"/></filter><mask id="mask-4" width="111" height="111" x="0" y="0" fill="#fff" maskContentUnits="userSpaceOnUse" maskUnits="objectBoundingBox"><use xlink:href="#path-3"/></mask></defs><g id="dom" fill="none" fill-rule="evenodd" stroke="none" stroke-width="1"><g id="ball_shift.svg"><g id="ball" opacity=".5" transform="translate(14 6)"><circle id="Oval-4" cx="53" cy="53" r="53" fill="#FFF"/><path id="Shape" fill="#000" fill-rule="nonzero" d="M108.95 52.524a.66.66 0 00-.009-.356l-.01-.044c-.711-14.312-6.856-27.567-17.308-37.338-1.28-1.33-3.19-2.902-5.37-4.426C72.119.137 53.779-2.73 37.187 2.697c-1.188.307-2.824.93-4.728 1.795a53.587 53.587 0 00-8.741 4.803 32.155 32.155 0 00-1.437 1.009 54.376 54.376 0 00-8.786 8C-6.322 40.792-4.047 75.325 18.562 95.281a54.894 54.894 0 0014.058 9.025c.733.35 1.342.56 1.86.784 21.382 8.552 45.892 2.77 61.028-14.403 9.271-10.528 14.042-24.071 13.442-38.164zm-1.951-2.264c-.048-.13-.095-.262-.147-.391-1.112-3-3.155-8.53-8.149-12.96-.737-9.313-4.052-14.758-7.006-19.544A52.812 52.812 0 01107 50.26zM70.587 9.112c.044-.01.09-.025.128-.037 4.802.84 12.238 3.568 18.634 7.928a.79.79 0 00.085.195l.62 1.001c2.851 4.62 6.08 9.85 6.808 18.739-2.901 2.139-4.968 4.418-6.974 6.623-1.195 1.314-2.425 2.667-3.826 3.99-4.698-4.376-13.03-8.118-22.027-9.868-.882-3.896-2.649-11.121-6.985-19.124.113-.13.222-.257.335-.383 6.969-7.914 9.423-8.364 12.266-8.883.301-.056.614-.114.936-.181zM45.423 53.884l18.033-14.431c9.045 1.723 17.37 5.492 21.758 9.848 1.073 3.326 1.349 10.492 1.557 15.765.1 2.7.197 5.06.364 6.482-7.083 6.463-16.481 13.096-19.546 13.786l-19.727-7.726c-1.476-8.27-1.908-13.934-2.439-23.724zm.59 23.87L31.731 87.81a.716.716 0 00-.427-.035c-2.664.553-12.913-6.968-17.907-11.335a.762.762 0 00-.183-.115c-.212-1.43-.666-3.247-1.178-5.31-1.352-5.44-3.026-12.18-1.523-16.37.03-.024.055-.05.083-.08.017-.02.036-.043.051-.068.976-1.405 1.918-2.621 2.884-3.712 3.048-3.463 6.502-5.923 11.874-8.444.353.257.717.519 1.094.795 5.001 3.654 11.805 8.628 17.089 10.963.533 9.738.964 15.407 2.425 23.657zM26.956 10.614c.202-.228.42-.426.673-.653l.14-.126c.534-.294 1.226-.7 2.025-1.168 1.883-1.102 4.46-2.611 7.286-4.035 7.63-2.608 15.88-3.433 23.912-2.4 0 .268.15.521.394.644.492.255.989.494 1.485.735C64.984 4.63 67 5.606 68.846 7.564c-2.886.547-5.838 1.43-12.868 9.41-.148.17-.298.34-.45.51-7.083-.704-15.227-1.093-22.551 1.071-2.709-3.23-4.985-4.767-7.001-6.127l-.054-.038c.44-1.03.766-1.474 1.034-1.777zM4.076 44.522a.721.721 0 00-1.147-.358 3.964 3.964 0 00-.218.193 52.024 52.024 0 0111.76-24.426c.35-.287.79-.672 1.294-1.111 2.085-1.817 6.947-6.062 8.49-5.327a39.018 39.018 0 00.267.18l.425.287c1.88 1.273 4.006 2.707 6.51 5.655-2.252 4.784-6.967 16.6-6.944 21.106-5.554 2.618-9.16 5.198-12.36 8.833a40.526 40.526 0 00-2.532 3.198c-.1-.092-.203-.192-.307-.287-1.605-1.5-4.025-3.768-5.238-7.943zm15.678 49.407A52.861 52.861 0 018.367 79.731c1.991-.56 2.949-.931 4.067-1.69 1.838 1.556 13.222 11.043 18.26 11.56a105.868 105.868 0 008.806 12.392c-1.647 1.015-3.003 1.365-4.75 1.261a52.782 52.782 0 01-14.996-9.325zm18.65 10.67c.849-.312 1.71-.774 2.654-1.413 7.942 1.173 16.8.439 23.033-.438.09.06.19.096.303.112 1.495.198 5.943.655 11.3.044-11.761 5.084-24.994 5.706-37.29 1.695zm54.134-13.757a.74.74 0 00-.12.523c-3.287 3.39-7 6.302-11.042 8.666a.679.679 0 00-.32.008c-6.468 1.702-12.663 1.383-15.434 1.102 1.247-3.108 2.104-7.732 2.6-14.068 3.637-1.017 12.846-7.486 20.207-14.21 1.834.303 3.085.589 4.1.825 2.47.571 3.603.835 8.098.248-.58 3.376-2.206 8.355-8.089 16.906zm8.064-10.453c1.264-3.02 1.745-5.273 1.99-7.064a.686.686 0 00-.042-.36c1.125-2.556 3.419-9.788 4.597-15.706-.361 8.187-2.605 16.075-6.545 23.13z"/></g><text id="shiftX" fill="#EE6B47" font-family="PTMono-Bold, PT Mono" font-size="14" font-weight="bold"><tspan x="27.8" y="87">shiftX</tspan></text><text id="shiftY" fill="#EE6B47" font-family="PTMono-Bold, PT Mono" font-size="14" font-weight="bold"><tspan x="94.8" y="34">shiftY</tspan></text><g id="Default"><use fill="#000" filter="url(#filter-2)" xlink:href="#path-1"/><path fill="#FFF" stroke="#D60000" d="M101.703 89.786a230.9 230.9 0 012.035 3.992l.273.553c.743 1.514 1.326 2.773 1.702 3.694.138.339.08.706-.104 1.1-.094.203-.221.41-.373.619a5.679 5.679 0 01-.503.605l-.147.151h-2.273l-4.2-8.574-5.613 5.727V73.775l15.69 16.01h-6.487z"/></g><use id="Rectangle" stroke="#999" stroke-dasharray="1,1" stroke-width="2" mask="url(#mask-4)" xlink:href="#path-3"/><path id="Line-41-Copy-2" fill="#EE6B47" fill-rule="nonzero" d="M28 72h50.295v-6l14 7-14 7v-6H28v6l-14-7 14-7v6z"/><path id="Line-41-Copy-3" fill="#EE6B47" fill-rule="nonzero" d="M93.295 19v40h6l-7 14-7-14h6V19h-6l7-14 7 14h-6z"/></g></g></svg>
